X:1
T:Si travagliati
T:Giovanni de Macque
T:Source : Canzonette a la Romana a tre voce---Antwerp---P.Phalesius Jr---1607. Editor : André Vierendeels (22/01/17). 
T:Notes : Original clefs  :   C1, C2, F3                    
T:Si travagliati
T:©
T:©
C:Giovanni de Macque
Z:©
%%score [ 1 2 3 ]
L:1/8
Q:1/4=105
M:4/4
K:F
V:1 treble nm="Soprano" snm="S"
V:2 treble nm="Alto" snm="A"
V:3 bass nm="Bass" snm="B"
V:1
 z2 d4 c2- | c2 B4 A2- | A2 G2 F4 | E6 A2 | A2 A2 BAGA | B2 d2 cBAG | A2 GF G4 | A8 :: z8 | %9
w: Si tra-|* va- glia-|* ti'a- man-|ti, con|dol- ci suo- * * *|* ni'e can- * * *||ti,||
 B2 A2 G2 AB | c4 A2 A2- | A2 GF B3 B | A8 | G8 :| %14
w: Han- no spes- so pie-|ga- te Don-|* ne, don- zel- le'in-|gra-|te.|
V:2
 z2 B4 A2- | A2 G4 F2- | F2 E4 D2- | D2 ^C4 ^F2 | ^F2 F2 GFGA | G2 B2 AGFE | DE F4 E2 | F8 :: %8
w: Si tra-|* va- glia|_ ti'a- man|_ ti, con|dol- ci suo- * * *|* ni'e can- * * *||ti,|
 F2 E2 D2 EF | G4 E2 E2- | E2 DC F4- | F2 D2 G4- | G2 ^FE F4 | G8 :| %14
w: han- no spes- so pie-|ga- te Don-|* ne, don- zel-|* le'in- gra-||te.|
V:3
 G,4 E,2 F,2 | D,2 _E,2 C,2 D,D | =B,2 C2 A,2 _B,2 | G,2 A,4 D,2 | D,2 D,2 G,4- | G,2 D,2 F,4- | %6
w: Si tra- va-|glia- ti'a- man- ti, si|tra- va- gli- ti'a-|man- te, con|dol- ci suo-|* ni'e can-|
 F,2 E,D, C,4 | F,8 :: z4 B,2 A,2 | G,2 A,B, C4 | A,2 A,4 G,F, | B,6 G,2 | D8 | G,8 :| %14
w: |ti,|han- no|spes- so pie- ga-|te Don- ne, don-|zel- l'in-|gra-|te.|

